images/50273091.svg

<?xml version="1.0" encoding="UTF-8"?>
<svg xmlns="http://www.w3.org/2000/svg" xmlns:xlink="http://www.w3.org/1999/xlink" width="300pt" height="300pt" viewBox="0 0 300 300" version="1.1">
<defs>
<g>
<symbol overflow="visible" id="glyph0-0">
<path style="stroke:none;" d="M 0.640625 2.296875 L 0.640625 -9.171875 L 7.140625 -9.171875 L 7.140625 2.296875 Z M 1.375 1.578125 L 6.421875 1.578125 L 6.421875 -8.4375 L 1.375 -8.4375 Z M 1.375 1.578125 "/>
</symbol>
<symbol overflow="visible" id="glyph0-1">
<path style="stroke:none;" d="M 1.28125 -9.484375 L 3 -9.484375 L 7.203125 -1.546875 L 7.203125 -9.484375 L 8.453125 -9.484375 L 8.453125 0 L 6.71875 0 L 2.515625 -7.921875 L 2.515625 0 L 1.28125 0 Z M 1.28125 -9.484375 "/>
</symbol>
</g>
</defs>
<g id="surface17309">
<rect x="0" y="0" width="300" height="300" style="fill:rgb(100%,100%,100%);fill-opacity:1;stroke:none;"/>
<path style="fill:none;stroke-width:1.2;stroke-linecap:butt;stroke-linejoin:miter;stroke:rgb(0%,0%,100%);stroke-opacity:1;stroke-miterlimit:10;" d="M 192.25 159.082031 L 188.683594 142.269531 "/>
<path style="fill:none;stroke-width:1.2;stroke-linecap:butt;stroke-linejoin:miter;stroke:rgb(0%,0%,0%);stroke-opacity:1;stroke-miterlimit:10;" d="M 188.683594 142.269531 L 185.121094 125.453125 "/>
<path style="fill:none;stroke-width:1.2;stroke-linecap:butt;stroke-linejoin:miter;stroke:rgb(0%,0%,100%);stroke-opacity:1;stroke-miterlimit:10;" d="M 199.449219 154.042969 L 196.597656 140.59375 "/>
<path style="fill:none;stroke-width:1.2;stroke-linecap:butt;stroke-linejoin:miter;stroke:rgb(0%,0%,0%);stroke-opacity:1;stroke-miterlimit:10;" d="M 196.597656 140.59375 L 193.746094 127.140625 "/>
<path style="fill:none;stroke-width:1.2;stroke-linecap:butt;stroke-linejoin:miter;stroke:rgb(0%,0%,0%);stroke-opacity:1;stroke-miterlimit:10;" d="M 224.9375 169.726562 L 208.59375 164.40625 "/>
<path style="fill:none;stroke-width:1.2;stroke-linecap:butt;stroke-linejoin:miter;stroke:rgb(0%,0%,100%);stroke-opacity:1;stroke-miterlimit:10;" d="M 208.59375 164.40625 L 192.25 159.082031 "/>
<path style=" stroke:none;fill-rule:nonzero;fill:rgb(100%,100%,100%);fill-opacity:1;" d="M 187.25 151.082031 L 197.25 151.082031 L 197.25 167.082031 L 187.25 167.082031 Z M 187.25 151.082031 "/>
<g style="fill:rgb(0%,0%,100%);fill-opacity:1;">
  <use xlink:href="#glyph0-1" x="187.25" y="163.458008"/>
</g>
<path style="fill:none;stroke-width:1.2;stroke-linecap:butt;stroke-linejoin:miter;stroke:rgb(0%,0%,0%);stroke-opacity:1;stroke-miterlimit:10;" d="M 185.121094 125.453125 L 210.679688 102.46875 "/>
<path style="fill:none;stroke-width:1.2;stroke-linecap:butt;stroke-linejoin:miter;stroke:rgb(0%,0%,0%);stroke-opacity:1;stroke-miterlimit:10;" d="M 185.121094 125.453125 L 152.433594 114.8125 "/>
<path style="fill:none;stroke-width:1.2;stroke-linecap:butt;stroke-linejoin:miter;stroke:rgb(0%,0%,0%);stroke-opacity:1;stroke-miterlimit:10;" d="M 210.679688 102.46875 L 243.367188 113.109375 "/>
<path style="fill:none;stroke-width:1.2;stroke-linecap:butt;stroke-linejoin:miter;stroke:rgb(0%,0%,0%);stroke-opacity:1;stroke-miterlimit:10;" d="M 211.445312 111.222656 L 237.597656 119.738281 "/>
<path style="fill:none;stroke-width:1.2;stroke-linecap:butt;stroke-linejoin:miter;stroke:rgb(0%,0%,0%);stroke-opacity:1;stroke-miterlimit:10;" d="M 243.367188 113.109375 L 250.496094 146.738281 "/>
<path style="fill:none;stroke-width:1.2;stroke-linecap:butt;stroke-linejoin:miter;stroke:rgb(0%,0%,0%);stroke-opacity:1;stroke-miterlimit:10;" d="M 250.496094 146.738281 L 224.9375 169.726562 "/>
<path style="fill:none;stroke-width:1.2;stroke-linecap:butt;stroke-linejoin:miter;stroke:rgb(0%,0%,0%);stroke-opacity:1;stroke-miterlimit:10;" d="M 242.53125 143.023438 L 222.082031 161.414062 "/>
<path style="fill:none;stroke-width:1.2;stroke-linecap:butt;stroke-linejoin:miter;stroke:rgb(0%,0%,0%);stroke-opacity:1;stroke-miterlimit:10;" d="M 224.9375 169.726562 L 232.0625 203.355469 "/>
<path style="fill:none;stroke-width:1.2;stroke-linecap:butt;stroke-linejoin:miter;stroke:rgb(0%,0%,0%);stroke-opacity:1;stroke-miterlimit:10;" d="M 232.0625 203.355469 L 264.75 213.996094 "/>
<path style="fill:none;stroke-width:1.2;stroke-linecap:butt;stroke-linejoin:miter;stroke:rgb(0%,0%,0%);stroke-opacity:1;stroke-miterlimit:10;" d="M 152.433594 114.8125 L 147.132812 98.464844 "/>
<path style="fill:none;stroke-width:1.2;stroke-linecap:butt;stroke-linejoin:miter;stroke:rgb(0%,0%,100%);stroke-opacity:1;stroke-miterlimit:10;" d="M 147.132812 98.464844 L 141.832031 82.113281 "/>
<path style="fill:none;stroke-width:1.2;stroke-linecap:butt;stroke-linejoin:miter;stroke:rgb(0%,0%,0%);stroke-opacity:1;stroke-miterlimit:10;" d="M 143.679688 114.039062 L 139.4375 100.957031 "/>
<path style="fill:none;stroke-width:1.2;stroke-linecap:butt;stroke-linejoin:miter;stroke:rgb(0%,0%,100%);stroke-opacity:1;stroke-miterlimit:10;" d="M 139.4375 100.957031 L 135.199219 87.878906 "/>
<path style="fill:none;stroke-width:1.2;stroke-linecap:butt;stroke-linejoin:miter;stroke:rgb(0%,0%,0%);stroke-opacity:1;stroke-miterlimit:10;" d="M 124.613281 135 L 152.433594 114.8125 "/>
<path style="fill:none;stroke-width:1.2;stroke-linecap:butt;stroke-linejoin:miter;stroke:rgb(0%,0%,100%);stroke-opacity:1;stroke-miterlimit:10;" d="M 141.832031 82.113281 L 107.457031 82.09375 "/>
<path style=" stroke:none;fill-rule:nonzero;fill:rgb(100%,100%,100%);fill-opacity:1;" d="M 136.832031 74.113281 L 146.832031 74.113281 L 146.832031 90.113281 L 136.832031 90.113281 Z M 136.832031 74.113281 "/>
<g style="fill:rgb(0%,0%,100%);fill-opacity:1;">
  <use xlink:href="#glyph0-1" x="136.832031" y="86.489258"/>
</g>
<path style="fill:none;stroke-width:1.2;stroke-linecap:butt;stroke-linejoin:miter;stroke:rgb(0%,0%,100%);stroke-opacity:1;stroke-miterlimit:10;" d="M 107.457031 82.09375 L 102.132812 98.4375 "/>
<path style="fill:none;stroke-width:1.2;stroke-linecap:butt;stroke-linejoin:miter;stroke:rgb(0%,0%,0%);stroke-opacity:1;stroke-miterlimit:10;" d="M 102.132812 98.4375 L 96.8125 114.78125 "/>
<path style="fill:none;stroke-width:1.2;stroke-linecap:butt;stroke-linejoin:miter;stroke:rgb(0%,0%,0%);stroke-opacity:1;stroke-miterlimit:10;" d="M 79.65625 61.871094 L 93.554688 71.980469 "/>
<path style="fill:none;stroke-width:1.2;stroke-linecap:butt;stroke-linejoin:miter;stroke:rgb(0%,0%,100%);stroke-opacity:1;stroke-miterlimit:10;" d="M 93.554688 71.980469 L 107.457031 82.09375 "/>
<path style=" stroke:none;fill-rule:nonzero;fill:rgb(100%,100%,100%);fill-opacity:1;" d="M 102.457031 74.09375 L 112.457031 74.09375 L 112.457031 90.09375 L 102.457031 90.09375 Z M 102.457031 74.09375 "/>
<g style="fill:rgb(0%,0%,100%);fill-opacity:1;">
  <use xlink:href="#glyph0-1" x="102.457031" y="86.469727"/>
</g>
<path style="fill:none;stroke-width:1.2;stroke-linecap:butt;stroke-linejoin:miter;stroke:rgb(0%,0%,0%);stroke-opacity:1;stroke-miterlimit:10;" d="M 96.8125 114.78125 L 62.4375 114.757812 "/>
<path style="fill:none;stroke-width:1.2;stroke-linecap:butt;stroke-linejoin:miter;stroke:rgb(0%,0%,0%);stroke-opacity:1;stroke-miterlimit:10;" d="M 96.8125 114.78125 L 124.613281 135 "/>
<path style="fill:none;stroke-width:1.2;stroke-linecap:butt;stroke-linejoin:miter;stroke:rgb(0%,0%,0%);stroke-opacity:1;stroke-miterlimit:10;" d="M 104.351562 110.261719 L 126.589844 126.4375 "/>
<path style="fill:none;stroke-width:1.2;stroke-linecap:butt;stroke-linejoin:miter;stroke:rgb(0%,0%,0%);stroke-opacity:1;stroke-miterlimit:10;" d="M 62.4375 114.757812 L 51.835938 82.058594 "/>
<path style="fill:none;stroke-width:1.2;stroke-linecap:butt;stroke-linejoin:miter;stroke:rgb(0%,0%,0%);stroke-opacity:1;stroke-miterlimit:10;" d="M 51.835938 82.058594 L 79.65625 61.871094 "/>
<path style="fill:none;stroke-width:1.2;stroke-linecap:butt;stroke-linejoin:miter;stroke:rgb(0%,0%,0%);stroke-opacity:1;stroke-miterlimit:10;" d="M 124.613281 135 L 124.589844 169.378906 "/>
<path style="fill:none;stroke-width:1.2;stroke-linecap:butt;stroke-linejoin:miter;stroke:rgb(0%,0%,0%);stroke-opacity:1;stroke-miterlimit:10;" d="M 124.589844 169.378906 L 94.8125 186.546875 "/>
<path style="fill:none;stroke-width:1.2;stroke-linecap:butt;stroke-linejoin:miter;stroke:rgb(0%,0%,0%);stroke-opacity:1;stroke-miterlimit:10;" d="M 125.652344 178.101562 L 101.828125 191.839844 "/>
<path style="fill:none;stroke-width:1.2;stroke-linecap:butt;stroke-linejoin:miter;stroke:rgb(0%,0%,0%);stroke-opacity:1;stroke-miterlimit:10;" d="M 154.351562 186.582031 L 124.589844 169.378906 "/>
<path style="fill:none;stroke-width:1.2;stroke-linecap:butt;stroke-linejoin:miter;stroke:rgb(0%,0%,0%);stroke-opacity:1;stroke-miterlimit:10;" d="M 94.8125 186.546875 L 94.789062 220.921875 "/>
<path style="fill:none;stroke-width:1.2;stroke-linecap:butt;stroke-linejoin:miter;stroke:rgb(0%,0%,0%);stroke-opacity:1;stroke-miterlimit:10;" d="M 65.050781 169.34375 L 94.8125 186.546875 "/>
<path style="fill:none;stroke-width:1.2;stroke-linecap:butt;stroke-linejoin:miter;stroke:rgb(0%,0%,0%);stroke-opacity:1;stroke-miterlimit:10;" d="M 94.789062 220.921875 L 109.671875 229.527344 "/>
<path style="fill:none;stroke-width:1.2;stroke-linecap:butt;stroke-linejoin:miter;stroke:rgb(0%,0%,100%);stroke-opacity:1;stroke-miterlimit:10;" d="M 109.671875 229.527344 L 124.550781 238.128906 "/>
<path style="fill:none;stroke-width:1.2;stroke-linecap:butt;stroke-linejoin:miter;stroke:rgb(0%,0%,0%);stroke-opacity:1;stroke-miterlimit:10;" d="M 101.816406 215.640625 L 113.71875 222.523438 "/>
<path style="fill:none;stroke-width:1.2;stroke-linecap:butt;stroke-linejoin:miter;stroke:rgb(0%,0%,100%);stroke-opacity:1;stroke-miterlimit:10;" d="M 113.71875 222.523438 L 125.625 229.40625 "/>
<path style="fill:none;stroke-width:1.2;stroke-linecap:butt;stroke-linejoin:miter;stroke:rgb(0%,0%,0%);stroke-opacity:1;stroke-miterlimit:10;" d="M 94.789062 220.921875 L 65.011719 238.09375 "/>
<path style="fill:none;stroke-width:1.2;stroke-linecap:butt;stroke-linejoin:miter;stroke:rgb(0%,0%,100%);stroke-opacity:1;stroke-miterlimit:10;" d="M 124.550781 238.128906 L 139.441406 229.542969 "/>
<path style="fill:none;stroke-width:1.2;stroke-linecap:butt;stroke-linejoin:miter;stroke:rgb(0%,0%,0%);stroke-opacity:1;stroke-miterlimit:10;" d="M 139.441406 229.542969 L 154.332031 220.960938 "/>
<path style=" stroke:none;fill-rule:nonzero;fill:rgb(100%,100%,100%);fill-opacity:1;" d="M 119.550781 230.128906 L 129.550781 230.128906 L 129.550781 246.128906 L 119.550781 246.128906 Z M 119.550781 230.128906 "/>
<g style="fill:rgb(0%,0%,100%);fill-opacity:1;">
  <use xlink:href="#glyph0-1" x="119.550781" y="242.504883"/>
</g>
<path style="fill:none;stroke-width:1.2;stroke-linecap:butt;stroke-linejoin:miter;stroke:rgb(0%,0%,0%);stroke-opacity:1;stroke-miterlimit:10;" d="M 154.332031 220.960938 L 154.351562 186.582031 "/>
<path style="fill:none;stroke-width:1.2;stroke-linecap:butt;stroke-linejoin:miter;stroke:rgb(0%,0%,0%);stroke-opacity:1;stroke-miterlimit:10;" d="M 146.246094 217.515625 L 146.261719 190.015625 "/>
<path style="fill:none;stroke-width:1.2;stroke-linecap:butt;stroke-linejoin:miter;stroke:rgb(0%,0%,0%);stroke-opacity:1;stroke-miterlimit:10;" d="M 65.011719 238.09375 L 35.25 220.886719 "/>
<path style="fill:none;stroke-width:1.2;stroke-linecap:butt;stroke-linejoin:miter;stroke:rgb(0%,0%,0%);stroke-opacity:1;stroke-miterlimit:10;" d="M 66.082031 229.371094 L 42.273438 215.605469 "/>
<path style="fill:none;stroke-width:1.2;stroke-linecap:butt;stroke-linejoin:miter;stroke:rgb(0%,0%,0%);stroke-opacity:1;stroke-miterlimit:10;" d="M 35.25 220.886719 L 35.269531 186.511719 "/>
<path style="fill:none;stroke-width:1.2;stroke-linecap:butt;stroke-linejoin:miter;stroke:rgb(0%,0%,0%);stroke-opacity:1;stroke-miterlimit:10;" d="M 35.269531 186.511719 L 65.050781 169.34375 "/>
<path style="fill:none;stroke-width:1.2;stroke-linecap:butt;stroke-linejoin:miter;stroke:rgb(0%,0%,0%);stroke-opacity:1;stroke-miterlimit:10;" d="M 42.289062 191.800781 L 66.113281 178.066406 "/>
</g>
</svg>

<svg xmlns="http://www.w3.org/2000/svg" xmlns:xlink="http://www.w3.org/1999/xlink" width="300pt" height="300pt" viewBox="0 0 300 300"><defs><symbol overflow="visible"><path d="M.64 2.297v-11.47h6.5v11.47zm.735-.72h5.047V-8.436H1.375zm0 0"/></symbol><symbol overflow="visible" id="a"><path d="M1.28-9.484H3l4.203 7.937v-7.937h1.25V0H6.72L2.515-7.922V0H1.28zm0 0"/></symbol></defs><g><path fill="#fff" d="M0 0h300v300H0z"/><path d="M192.25 159.082l-3.566-16.812" stroke-width="1.2" stroke="#00f" stroke-miterlimit="10" fill="none"/><path d="M188.684 142.27l-3.563-16.817" stroke-width="1.2" stroke="#000" stroke-miterlimit="10" fill="none"/><path d="M199.45 154.043l-2.852-13.45" stroke-width="1.2" stroke="#00f" stroke-miterlimit="10" fill="none"/><path d="M196.598 140.594l-2.852-13.453M224.938 169.727l-16.344-5.32" stroke-width="1.2" stroke="#000" stroke-miterlimit="10" fill="none"/><path d="M208.594 164.406l-16.344-5.324" stroke-width="1.2" stroke="#00f" stroke-miterlimit="10" fill="none"/><path d="M187.25 151.082h10v16h-10zm0 0" fill="#fff"/><use xlink:href="#a" x="187.25" y="163.458" fill="#00f"/><path d="M185.12 125.453l25.56-22.984M185.12 125.453l-32.686-10.64M210.68 102.47l32.687 10.64M211.445 111.223l26.153 8.515M243.367 113.11l7.13 33.628M250.496 146.738l-25.56 22.99M242.53 143.023l-20.448 18.39M224.938 169.727l7.125 33.628M232.063 203.355l32.687 10.64M152.434 114.813l-5.3-16.348" stroke-width="1.2" stroke="#000" stroke-miterlimit="10" fill="none"/><path d="M147.133 98.465l-5.3-16.352" stroke-width="1.2" stroke="#00f" stroke-miterlimit="10" fill="none"/><path d="M143.68 114.04l-4.243-13.083" stroke-width="1.2" stroke="#000" stroke-miterlimit="10" fill="none"/><path d="M139.438 100.957l-4.24-13.078" stroke-width="1.2" stroke="#00f" stroke-miterlimit="10" fill="none"/><path d="M124.613 135l27.82-20.188" stroke-width="1.2" stroke="#000" stroke-miterlimit="10" fill="none"/><path d="M141.832 82.113l-34.375-.02" stroke-width="1.2" stroke="#00f" stroke-miterlimit="10" fill="none"/><path d="M136.832 74.113h10v16h-10zm0 0" fill="#fff"/><use xlink:href="#a" x="136.832" y="86.489" fill="#00f"/><path d="M107.457 82.094l-5.324 16.344" stroke-width="1.2" stroke="#00f" stroke-miterlimit="10" fill="none"/><path d="M102.133 98.438l-5.32 16.343M79.656 61.87l13.9 10.11" stroke-width="1.2" stroke="#000" stroke-miterlimit="10" fill="none"/><path d="M93.555 71.98l13.902 10.114" stroke-width="1.2" stroke="#00f" stroke-miterlimit="10" fill="none"/><path d="M102.457 74.094h10v16h-10zm0 0" fill="#fff"/><use xlink:href="#a" x="102.457" y="86.47" fill="#00f"/><path d="M96.813 114.78l-34.376-.022M96.813 114.78l27.8 20.22M104.352 110.262l22.238 16.175M62.438 114.758l-10.602-32.7M51.836 82.06l27.82-20.19M124.613 135l-.023 34.38M124.59 169.38l-29.778 17.167M125.652 178.102l-23.824 13.738M154.352 186.582L124.59 169.38M94.813 186.547l-.024 34.375M65.05 169.344l29.763 17.203M94.79 220.922l14.882 8.605" stroke-width="1.2" stroke="#000" stroke-miterlimit="10" fill="none"/><path d="M109.672 229.527l14.88 8.602" stroke-width="1.2" stroke="#00f" stroke-miterlimit="10" fill="none"/><path d="M101.816 215.64l11.903 6.883" stroke-width="1.2" stroke="#000" stroke-miterlimit="10" fill="none"/><path d="M113.72 222.523l11.905 6.883" stroke-width="1.2" stroke="#00f" stroke-miterlimit="10" fill="none"/><path d="M94.79 220.922L65.01 238.094" stroke-width="1.2" stroke="#000" stroke-miterlimit="10" fill="none"/><path d="M124.55 238.13l14.89-8.587" stroke-width="1.2" stroke="#00f" stroke-miterlimit="10" fill="none"/><path d="M139.44 229.543l14.892-8.582" stroke-width="1.2" stroke="#000" stroke-miterlimit="10" fill="none"/><path d="M119.55 230.13h10v16h-10zm0 0" fill="#fff"/><use xlink:href="#a" x="119.551" y="242.505" fill="#00f"/><path d="M154.332 220.96l.02-34.378M146.246 217.516l.016-27.5M65.012 238.094L35.25 220.887M66.082 229.37l-23.81-13.765M35.25 220.887l.02-34.375M35.27 186.512l29.78-17.168M42.29 191.8l23.823-13.734" stroke-width="1.2" stroke="#000" stroke-miterlimit="10" fill="none"/></g></svg>
